dist/assets/svg/video-arr-right.svg

<svg xmlns="http://www.w3.org/2000/svg" width="10" height="12" fill="none" viewBox="0 0 10 12"><path fill="#999" fill-rule="evenodd" d="M0.348163 0.219168C0.748196 -0.125842 1.33192 -0.0559202 1.65195 0.375342L5.82586 6.00004L1.65194 11.6247C1.33192 12.056 0.748195 12.1259 0.348162 11.7809C-0.0518709 11.4359 -0.116729 10.8066 0.203297 10.3753L3.45008 6.00004L0.203298 1.62473C-0.116728 1.19347 -0.05187 0.564177 0.348163 0.219168ZM4.5223 0.219168C4.92234 -0.125841 5.50606 -0.0559197 5.82609 0.375342L10 6.00004L5.82609 11.6247C5.50606 12.056 4.92234 12.1259 4.5223 11.7809C4.12227 11.4359 4.05741 10.8066 4.37744 10.3753L7.62422 6.00004L4.37744 1.62473C4.05741 1.19347 4.12227 0.564178 4.5223 0.219168Z" clip-rule="evenodd"/></svg>

<svg xmlns="http://www.w3.org/2000/svg" width="10" height="12" fill="none" viewBox="0 0 10 12"><path fill="#999" fill-rule="evenodd" d="M.348.22a.883.883 0 0 1 1.304.155L5.826 6l-4.174 5.625a.883.883 0 0 1-1.304.156 1.054 1.054 0 0 1-.145-1.406L3.45 6 .203 1.625A1.054 1.054 0 0 1 .348.219m4.174 0a.883.883 0 0 1 1.304.155L10 6l-4.174 5.625a.883.883 0 0 1-1.304.156 1.054 1.054 0 0 1-.145-1.406L7.624 6 4.377 1.625A1.054 1.054 0 0 1 4.522.219" clip-rule="evenodd"/></svg>
